icons/breezeDark/actions/24/snap-nodes-cusp.svg

<svg viewBox="0 0 24 24" xmlns="http://www.w3.org/2000/svg"><path d="m7 7v10h10v-10zm1 1h8v8h-8z" fill="#c0c0c0"/><path d="m8 8h8v8h-8z" fill="#c0c0c0" fill-opacity=".501961"/><g fill="#da4453"><path d="m5.5 3a2.5 2.5 0 0 0 -2.5 2.5 2.5 2.5 0 0 0 2.5 2.5 2.5 2.5 0 0 0 2.5-2.5 2.5 2.5 0 0 0 -2.5-2.5zm13 0a2.5 2.5 0 0 0 -2.5 2.5 2.5 2.5 0 0 0 2.322266 2.4941406 2.5 2.5 0 0 0 .177734.0058594 2.5 2.5 0 0 0 2.5-2.5 2.5 2.5 0 0 0 -2.5-2.5zm-13 1a1.5 1.5 0 0 1 1.5 1.5h-1.5v1.5a1.5 1.5 0 0 1 -1.5-1.5h1.5zm13 0v1.5h1.5a1.5 1.5 0 0 1 -1.5 1.5v-1.5h-1.5a1.5 1.5 0 0 1 1.5-1.5zm-13 12a2.5 2.5 0 0 0 -2.5 2.5 2.5 2.5 0 0 0 2.5 2.5 2.5 2.5 0 0 0 2.5-2.5 2.5 2.5 0 0 0 -2.5-2.5zm13 0a2.5 2.5 0 0 0 -2.494141 2.322266 2.5 2.5 0 0 0 -.005859.177734 2.5 2.5 0 0 0 2.5 2.5 2.5 2.5 0 0 0 2.5-2.5 2.5 2.5 0 0 0 -2.5-2.5zm-13 1v1.5h1.5a1.5 1.5 0 0 1 -1.5 1.5v-1.5h-1.5a1.5 1.5 0 0 1 1.5-1.5zm13 0a1.5 1.5 0 0 1 1.5 1.5h-1.5v1.5a1.5 1.5 0 0 1 -1.5-1.5h1.5z"/><circle cx="18.5" cy="18.5" r="0"/></g></svg>

<?xml version="1.0" encoding="UTF-8" standalone="no"?>
<svg
   xmlns:dc="http://purl.org/dc/elements/1.1/"
   xmlns:cc="http://creativecommons.org/ns#"
   xmlns:rdf="http://www.w3.org/1999/02/22-rdf-syntax-ns#"
   xmlns:svg="http://www.w3.org/2000/svg"
   xmlns="http://www.w3.org/2000/svg"
   xmlns:sodipodi="http://sodipodi.sourceforge.net/DTD/sodipodi-0.dtd"
   xmlns:inkscape="http://www.inkscape.org/namespaces/inkscape"
   viewBox="0 0 24 24"
   version="1.1"
   id="svg8"
   sodipodi:docname="snap-nodes-cusp.svg"
   inkscape:version="0.92.4 (5da689c313, 2019-01-14)">
  <metadata
     id="metadata12">
    <rdf:RDF>
      <cc:Work
         rdf:about="">
        <dc:format>image/svg+xml</dc:format>
        <dc:type
           rdf:resource="http://purl.org/dc/dcmitype/StillImage" />
        <dc:title></dc:title>
      </cc:Work>
    </rdf:RDF>
  </metadata>
  <sodipodi:namedview
     pagecolor="#ffffff"
     bordercolor="#666666"
     borderopacity="1"
     objecttolerance="10"
     gridtolerance="10"
     guidetolerance="10"
     inkscape:pageopacity="0"
     inkscape:pageshadow="2"
     inkscape:window-width="1394"
     inkscape:window-height="1093"
     id="namedview10"
     showgrid="true"
     inkscape:snap-object-midpoints="true"
     inkscape:zoom="27.812867"
     inkscape:cx="15.696325"
     inkscape:cy="8.0961045"
     inkscape:window-x="1916"
     inkscape:window-y="603"
     inkscape:window-maximized="0"
     inkscape:current-layer="svg8">
    <inkscape:grid
       type="xygrid"
       id="grid822"
       spacingy="0.5"
       spacingx="0.5"
       empspacing="2" />
  </sodipodi:namedview>
  <defs
     id="defs3051">
    <style
       type="text/css"
       id="current-color-scheme">
      .ColorScheme-Text {
        color:#c0c0c0;
      }
      .ColorScheme-Highlight {
        color:#3daee9;
      }
      </style>
  </defs>
  <path
     style="fill:#c0c0c0;fill-opacity:1;stroke:none;stroke-opacity:1"
     d="M 7 7 L 7 17 L 17 17 L 17 7 L 7 7 z M 8 8 L 16 8 L 16 16 L 8 16 L 8 8 z "
     id="rect892" />
  <rect
     style="fill:#c0c0c0;fill-opacity:0.50196081;stroke:none;stroke-opacity:1"
     id="rect897"
     width="8"
     height="8"
     x="8"
     y="8" />
  <path
     style="fill:#da4453;fill-opacity:1;stroke:none;stroke-opacity:1"
     d="M 5.5 3 A 2.5 2.5 0 0 0 3 5.5 A 2.5 2.5 0 0 0 5.5 8 A 2.5 2.5 0 0 0 8 5.5 A 2.5 2.5 0 0 0 5.5 3 z M 18.5 3 A 2.5 2.5 0 0 0 16 5.5 A 2.5 2.5 0 0 0 18.322266 7.9941406 A 2.5 2.5 0 0 0 18.5 8 A 2.5 2.5 0 0 0 21 5.5 A 2.5 2.5 0 0 0 18.5 3 z M 5.5 4 A 1.5 1.5 0 0 1 7 5.5 L 5.5 5.5 L 5.5 7 A 1.5 1.5 0 0 1 4 5.5 L 5.5 5.5 L 5.5 4 z M 18.5 4 L 18.5 5.5 L 20 5.5 A 1.5 1.5 0 0 1 18.5 7 L 18.5 5.5 L 17 5.5 A 1.5 1.5 0 0 1 18.5 4 z M 5.5 16 A 2.5 2.5 0 0 0 3 18.5 A 2.5 2.5 0 0 0 5.5 21 A 2.5 2.5 0 0 0 8 18.5 A 2.5 2.5 0 0 0 5.5 16 z M 18.5 16 A 2.5 2.5 0 0 0 16.005859 18.322266 A 2.5 2.5 0 0 0 16 18.5 A 2.5 2.5 0 0 0 18.5 21 A 2.5 2.5 0 0 0 21 18.5 A 2.5 2.5 0 0 0 18.5 16 z M 5.5 17 L 5.5 18.5 L 7 18.5 A 1.5 1.5 0 0 1 5.5 20 L 5.5 18.5 L 4 18.5 A 1.5 1.5 0 0 1 5.5 17 z M 18.5 17 A 1.5 1.5 0 0 1 20 18.5 L 18.5 18.5 L 18.5 20 A 1.5 1.5 0 0 1 17 18.5 L 18.5 18.5 L 18.5 17 z "
     id="path1006" />
  <circle
     style="fill:#da4453;fill-opacity:1;stroke:none;stroke-opacity:1"
     id="path1016"
     cx="18.5"
     cy="18.5"
     r="0" />
</svg>
